.local/share/icons/Gruvbox-Plus-Dark/panel/16/indicator-privacy-panel.svg

<svg xmlns="http://www.w3.org/2000/svg" width="16" height="16" version="1.1">
 <defs>
  <style id="current-color-scheme" type="text/css">
   .ColorScheme-Text { color:#ebdbb2; } .ColorScheme-Highlight { color:#458588; }
  </style>
 </defs>
 <path style="fill:currentColor" class="ColorScheme-Text" d="M 8.0097656 2 C 2.9648767 2 -4.7369516e-15 7.6699219 0 7.6699219 C 0 7.6699219 3.2227434 14 8.0097656 14 C 13.167099 14 16 7.6699219 16 7.6699219 C 16 7.6699219 13.138655 2 8.0097656 2 z M 8 5 C 9.657 5 11 6.3432 11 8 C 11 9.657 9.657 11 8 11 C 6.3432002 11 5 9.657 5 8 C 5 6.3432 6.3432002 5 8 5 z M 8 6 C 6.895 6 6 6.8961 6 8 C 6 9.105 6.8961001 10 8 10 C 9.105 10 10 9.105 10 8 C 10 6.895 9.1039999 6 8 6 z"/>
</svg>

<svg width="16" height="16" version="1.1" xmlns="http://www.w3.org/2000/svg">
  <defs>
    <style id="current-color-scheme" type="text/css">.ColorScheme-Text { color:#ebdbb2; } .ColorScheme-Highlight { color:#458588; } .ColorScheme-NeutralText { color:#fe8019; } .ColorScheme-PositiveText { color:#689d6a; } .ColorScheme-NegativeText { color:#fb4934; }</style>
  </defs>
  <path class="ColorScheme-Text" d="m8.01 2c-5.045 0-8.01 5.67-8.01 5.67 0 0 3.223 6.33 8.01 6.33 5.157 0 7.99-6.33 7.99-6.33s-2.861-5.67-7.99-5.67zm-0.009766 3c1.657 0 3 1.343 3 3 0 1.657-1.343 3-3 3-1.657 0-3-1.343-3-3 0-1.657 1.343-3 3-3zm0 1c-1.105 0-2 0.8961-2 2 0 1.105 0.8961 2 2 2 1.105 0 2-0.895 2-2s-0.896-2-2-2z" fill="currentColor"/>
</svg>
